tools/download-figma-icons/icons/action/copy.svg

<svg width="24" height="24" viewBox="0 0 24 24" fill="none" xmlns="http://www.w3.org/2000/svg">
<path d="M2.625 16.5C2.325 16.5 2.04 16.38 1.83 16.17C1.62 15.96 1.5 15.675 1.5 15.375V2.625C1.5 2.0025 2.0025 1.5 2.625 1.5H15.3525C15.975 1.5 16.4775 2.0025 16.4775 2.625L16.5 15.36C16.5 15.66 16.38 15.945 16.17 16.155C15.96 16.365 15.675 16.485 15.375 16.485L2.625 16.5ZM3.75 3.75V14.25H14.25L14.235 3.75H3.75Z" fill="black"/>
<path d="M8.625 22.5C8.325 22.5 8.04 22.38 7.83 22.17C7.62 21.96 7.5 21.675 7.5 21.375V19.125C7.5 18.5025 8.0025 18 8.625 18C9.2475 18 9.75 18.5025 9.75 19.125V20.25H20.25L20.235 9.75H19.1325C18.51 9.75 18.0075 9.2475 18.0075 8.625C18.0075 8.0025 18.51 7.5 19.1325 7.5H21.36C21.9825 7.5 22.485 8.0025 22.485 8.625L22.5075 21.36C22.5075 21.66 22.3875 21.945 22.1775 22.155C21.9675 22.365 21.6825 22.485 21.3825 22.485L8.6325 22.5H8.625Z" fill="black"/>
</svg>

<svg xmlns="http://www.w3.org/2000/svg" width="24" height="24" fill="none" viewBox="0 0 24 24"><path fill="currentColor" d="M2.625 16.5A1.124 1.124 0 0 1 1.5 15.375V2.625c0-.622.502-1.125 1.125-1.125h12.728c.622 0 1.124.502 1.124 1.125L16.5 15.36a1.124 1.124 0 0 1-1.125 1.125zM3.75 3.75v10.5h10.5l-.015-10.5z"/><path fill="currentColor" d="M8.625 22.5A1.124 1.124 0 0 1 7.5 21.375v-2.25c0-.622.502-1.125 1.125-1.125s1.125.503 1.125 1.125v1.125h10.5l-.015-10.5h-1.102a1.123 1.123 0 0 1-1.125-1.125c0-.623.502-1.125 1.125-1.125h2.227c.623 0 1.125.502 1.125 1.125l.023 12.735a1.124 1.124 0 0 1-1.125 1.125l-12.75.015z"/></svg>
